resources/profiles/BBL/bbl-3dp-logo.svg

<svg width="988" height="1026" viewBox="0 0 988 1026" fill="none" xmlns="http://www.w3.org/2000/svg">
<rect x="23.5083" y="47.3984" width="35.2051" height="238.804" fill="#444646"/>
<path d="M529.093 987.289L502.234 1014.01H509.927L536.652 987.289H529.093Z" fill="#CFD2D3"/>
<path d="M544.207 987.289L517.483 1014.01H525.041L551.901 987.289H544.207Z" fill="#CFD2D3"/>
<path d="M559.461 987.289L532.736 1014.01H540.43L567.154 987.289H559.461Z" fill="#CFD2D3"/>
<path d="M574.849 987.289L547.989 1014.01H555.683L582.407 987.289H574.849Z" fill="#CFD2D3"/>
<path d="M590.098 987.289L563.374 1014.01H570.932L597.792 987.289H590.098Z" fill="#CFD2D3"/>
<path d="M605.487 987.289L578.627 1014.01H586.32L613.045 987.289H605.487Z" fill="#CFD2D3"/>
<path d="M620.74 987.289L594.015 1014.01H601.574L628.433 987.289H620.74Z" fill="#CFD2D3"/>
<path d="M635.989 987.289L609.264 1014.01H616.823L643.682 987.289H635.989Z" fill="#CFD2D3"/>
<path d="M651.377 987.289L624.518 1014.01H632.211L658.936 987.289H651.377Z" fill="#CFD2D3"/>
<path d="M666.631 987.289L639.771 1014.01H647.464L674.324 987.289H666.631Z" fill="#CFD2D3"/>
<path d="M375.627 987.289L348.767 1014.01H356.461L383.32 987.289H375.627Z" fill="#CFD2D3"/>
<path d="M390.745 987.289L364.021 1014.01H371.579L398.439 987.289H390.745Z" fill="#CFD2D3"/>
<path d="M406.133 987.289L379.273 1014.01H386.967L413.691 987.289H406.133Z" fill="#CFD2D3"/>
<path d="M421.382 987.289L394.658 1014.01H402.216L429.076 987.289H421.382Z" fill="#CFD2D3"/>
<path d="M436.636 987.289L409.911 1014.01H417.605L444.329 987.289H436.636Z" fill="#CFD2D3"/>
<path d="M452.024 987.289L425.164 1014.01H432.858L459.582 987.289H452.024Z" fill="#CFD2D3"/>
<path d="M467.273 987.289L440.548 1014.01H448.107L474.966 987.289H467.273Z" fill="#CFD2D3"/>
<path d="M482.526 987.289L455.802 1014.01H463.495L490.22 987.289H482.526Z" fill="#CFD2D3"/>
<path d="M497.915 987.289L471.055 1014.01H478.749L505.473 987.289H497.915Z" fill="#CFD2D3"/>
<path d="M513.164 987.289L486.439 1014.01H493.997L520.857 987.289H513.164Z" fill="#CFD2D3"/>
<path d="M662.848 1014.02L678.1 998.764V991.07L655.155 1014.02H662.848Z" fill="#CFD2D3"/>
<path d="M678.102 1014.02V1006.46L670.409 1014.02H678.102Z" fill="#CFD2D3"/>
<path d="M358.352 987.289L343.1 1002.54V1010.23L366.045 987.289H358.352Z" fill="#CFD2D3"/>
<path d="M48.4548 139.256V114.691H30.5034V119.55H44.0007C44.2706 119.55 44.5406 119.82 44.5406 120.09V126.569C44.5406 126.839 44.2706 127.109 44.0007 127.109H30.5034V131.968H44.0007C44.2706 131.968 44.5406 132.238 44.5406 132.508V138.986C44.5406 139.256 44.2706 139.526 44.0007 139.526H30.5034V144.385H43.4608C46.2952 143.98 48.4548 141.956 48.4548 139.256Z" fill="#CFD2D3"/>
<path d="M34.9575 190.278C34.6876 190.278 34.4176 190.008 34.4176 189.738V178.131C34.4176 177.861 34.6876 177.591 34.9575 177.591H48.4548V173.137H35.4974C32.798 173.137 30.5034 175.296 30.5034 177.996V190.008C30.5034 192.708 32.663 194.867 35.4974 194.867H48.4548V190.413H34.9575V190.278Z" fill="#CFD2D3"/>
<path d="M48.4555 105.513V88.1015L44.5413 89.5862V105.378C44.5413 105.648 44.2713 105.918 44.0014 105.918H41.7068V91.7457C41.7068 89.0463 39.5473 86.8867 36.7129 86.8867H35.3631C32.6637 86.8867 30.3691 89.0463 30.3691 91.7457V110.372H43.3265C46.2959 110.372 48.4555 108.212 48.4555 105.513ZM34.4183 105.783V91.8807C34.4183 91.6108 34.6883 91.3408 34.9582 91.3408H37.5227C37.7926 91.3408 38.0626 91.6108 38.0626 91.8807V105.783H34.4183Z" fill="#CFD2D3"/>
<path d="M48.4548 164.228V152.89H52.9089V148.031H30.5034V153.025V164.363C30.5034 167.062 32.663 169.222 35.4974 169.222H43.4608C46.2952 169.087 48.4548 166.927 48.4548 164.228ZM34.9575 164.228C34.6876 164.228 34.4176 163.958 34.4176 163.688V152.89H44.5406V163.688C44.5406 163.958 44.2706 164.228 44.0007 164.228H34.9575Z" fill="#CFD2D3"/>
<path d="M37.9269 83.246C39.6816 83.1111 41.1663 82.3012 42.246 80.9515C43.1909 81.6264 44.4056 82.0313 45.7553 82.1663C45.8903 82.1663 47.1051 82.1663 47.24 82.1663C51.0193 81.8963 53.8537 78.2521 53.8537 73.9329C53.8537 73.9329 53.8537 68.3991 53.8537 64.0799H49.8045L47.9149 59.0859H30.5034V76.9023C30.5034 76.9023 30.5034 77.1723 30.5034 77.3072C30.7734 80.4116 33.3378 82.9761 36.5772 83.1111C36.8471 83.246 37.657 83.246 37.9269 83.246ZM49.8045 64.0799V74.6078C49.8045 74.8777 49.6695 75.1477 49.6695 75.5526C49.2646 76.4974 48.3198 77.3072 47.1051 77.3072C47.1051 77.3072 46.7001 77.3072 46.5652 77.3072C45.6204 77.1723 44.9455 76.6324 44.6756 75.8225C44.5406 75.4176 44.4056 75.1477 44.4056 74.7428V64.3499H49.8045V64.0799ZM34.4176 75.2827V64.0799H40.3564V75.2827C40.3564 76.9023 39.0067 78.1171 37.387 78.1171C35.7674 78.2521 34.4176 76.9023 34.4176 75.2827Z" fill="#CFD2D3"/>
<path d="M53.8545 64.0739H58.7135L56.6889 59.2148H51.9648L53.8545 64.0739Z" fill="#CFD2D3"/>
<path d="M34.8225 214.976H52.9089V210.117H30.5034V228.204L34.8225 226.584V214.976Z" fill="#CFD2D3"/>
<path d="M48.4555 249.126V231.715L44.5413 233.199V248.991C44.5413 249.261 44.2713 249.531 44.0014 249.531H41.7068V235.359C41.7068 232.66 39.5473 230.5 36.7129 230.5H35.3631C32.6637 230.5 30.3691 232.66 30.3691 235.359V253.985H43.3265C46.2959 253.985 48.4555 251.826 48.4555 249.126ZM34.4183 249.531V235.629C34.4183 235.359 34.6883 235.089 34.9582 235.089H37.5227C37.7926 235.089 38.0626 235.359 38.0626 235.629V249.531H34.4183Z" fill="#CFD2D3"/>
<path d="M48.4548 274.636V263.299H52.9089V263.164V258.305H30.5034V263.299V274.636C30.5034 277.336 32.663 279.495 35.4974 279.495H43.4608C46.2952 279.495 48.4548 277.336 48.4548 274.636ZM34.9575 274.636C34.6876 274.636 34.4176 274.366 34.4176 274.096V263.299H44.5406V274.096C44.5406 274.366 44.2706 274.636 44.0007 274.636H34.9575Z" fill="#CFD2D3"/>
<path d="M343.1 987.289V994.983L350.793 987.289H343.1Z" fill="#CFD2D3"/>
</svg>

<svg xmlns="http://www.w3.org/2000/svg" width="988" height="1026" fill="none"><path fill="#444646" d="M23.508 47.398h35.205v238.804H23.508z"/><path fill="#CFD2D3" d="m529.093 987.289-26.859 26.721h7.693l26.725-26.721zM544.207 987.289l-26.724 26.721h7.558l26.86-26.721zM559.461 987.289l-26.725 26.721h7.694l26.724-26.721zM574.849 987.289l-26.86 26.721h7.694l26.724-26.721zM590.098 987.289l-26.724 26.721h7.558l26.86-26.721zM605.487 987.289l-26.86 26.721h7.693l26.725-26.721zM620.74 987.289l-26.725 26.721h7.559l26.859-26.721zM635.989 987.289l-26.725 26.721h7.559l26.859-26.721zM651.377 987.289l-26.859 26.721h7.693l26.725-26.721zM666.631 987.289l-26.86 26.721h7.693l26.86-26.721zM375.627 987.289l-26.86 26.721h7.694l26.859-26.721zM390.745 987.289l-26.724 26.721h7.558l26.86-26.721zM406.133 987.289l-26.86 26.721h7.694l26.724-26.721zM421.382 987.289l-26.724 26.721h7.558l26.86-26.721zM436.636 987.289l-26.725 26.721h7.694l26.724-26.721zM452.024 987.289l-26.86 26.721h7.694l26.724-26.721zM467.273 987.289l-26.725 26.721h7.559l26.859-26.721zM482.526 987.289l-26.724 26.721h7.693l26.725-26.721zM497.915 987.289l-26.86 26.721h7.694l26.724-26.721zM513.164 987.289l-26.725 26.721h7.558l26.86-26.721zM662.848 1014.02l15.252-15.256v-7.694l-22.945 22.95zM678.102 1014.02v-7.56l-7.693 7.56zM358.352 987.289 343.1 1002.54v7.69l22.945-22.941zM48.455 139.256v-24.565H30.503v4.859h13.498c.27 0 .54.27.54.54v6.479c0 .27-.27.54-.54.54H30.503v4.859h13.498c.27 0 .54.27.54.54v6.478c0 .27-.27.54-.54.54H30.503v4.859h12.958c2.834-.405 4.994-2.429 4.994-5.129M34.958 190.278c-.27 0-.54-.27-.54-.54v-11.607c0-.27.27-.54.54-.54h13.497v-4.454H35.497c-2.699 0-4.994 2.159-4.994 4.859v12.012c0 2.7 2.16 4.859 4.994 4.859h12.958v-4.454H34.958zM48.456 105.513V88.101l-3.915 1.485v15.792c0 .27-.27.54-.54.54h-2.294V91.746c0-2.7-2.16-4.86-4.994-4.86h-1.35c-2.7 0-4.994 2.16-4.994 4.86v18.626h12.958c2.969 0 5.129-2.16 5.129-4.859m-14.038.27V91.881c0-.27.27-.54.54-.54h2.565c.27 0 .54.27.54.54v13.902zM48.455 164.228V152.89h4.454v-4.859H30.503v16.332c0 2.699 2.16 4.859 4.994 4.859h7.964c2.834-.135 4.994-2.295 4.994-4.994m-13.497 0c-.27 0-.54-.27-.54-.54V152.89H44.54v10.798c0 .27-.27.54-.54.54zM37.927 83.246c1.755-.135 3.24-.945 4.319-2.294.945.674 2.16 1.08 3.51 1.214h1.484c3.78-.27 6.614-3.914 6.614-8.233V64.08h-4.05l-1.89-4.994h-17.41v18.221c.27 3.105 2.834 5.67 6.073 5.804.27.135 1.08.135 1.35.135M49.804 64.08v10.528c0 .27-.135.54-.135.945-.404.944-1.35 1.754-2.564 1.754h-.54c-.945-.135-1.62-.675-1.89-1.484-.134-.405-.27-.675-.27-1.08V64.35h5.4zM34.418 75.283V64.08h5.938v11.203c0 1.62-1.35 2.834-2.969 2.834-1.62.135-2.97-1.215-2.97-2.834M53.855 64.074h4.859l-2.025-4.86h-4.724zM34.823 214.976h18.086v-4.859H30.503v18.087l4.32-1.62zM48.456 249.126v-17.411l-3.915 1.484v15.792c0 .27-.27.54-.54.54h-2.294v-14.172c0-2.699-2.16-4.859-4.994-4.859h-1.35c-2.7 0-4.994 2.16-4.994 4.859v18.626h12.958c2.969 0 5.129-2.159 5.129-4.859m-14.038.405v-13.902c0-.27.27-.54.54-.54h2.565c.27 0 .54.27.54.54v13.902zM48.455 274.636v-11.337h4.454v-4.994H30.503v16.331c0 2.7 2.16 4.859 4.994 4.859h7.964c2.834 0 4.994-2.159 4.994-4.859m-13.497 0c-.27 0-.54-.27-.54-.54v-10.797H44.54v10.797c0 .27-.27.54-.54.54zM343.1 987.289v7.694l7.693-7.694z"/></svg>
